static/img/device/component-cable-cover-xs2.svg

<svg width="130" height="97" viewBox="0 0 130 97" fill="none" xmlns="http://www.w3.org/2000/svg">
<g clip-path="url(#clip0_337_1870)">
<path d="M130 0H0V97H130V0Z" fill="white"/>
<path d="M27.9227 14.0184C27.9227 10.9855 30.3753 8.52133 33.394 8.52133C36.4127 8.52133 38.8653 10.9855 38.8653 14.0184C38.8653 17.0513 36.4127 19.5155 33.394 19.5155C30.3753 19.5155 27.9227 17.0513 27.9227 14.0184Z" stroke="#898989" stroke-width="0.5" stroke-linecap="round" stroke-linejoin="round"/>
<path d="M8.48145 66.5249C8.48145 63.492 10.9341 61.0278 13.9528 61.0278C16.9715 61.0278 19.4241 63.492 19.4241 66.5249C19.4241 69.5577 16.9715 72.0219 13.9528 72.0219C10.9341 72.0219 8.48145 69.5577 8.48145 66.5249Z" stroke="#898989" stroke-width="0.5" stroke-linecap="round" stroke-linejoin="round"/>
<path d="M31.1472 14.0184C31.1472 12.769 32.1591 11.7523 33.4026 11.7523C34.6461 11.7523 35.658 12.769 35.658 14.0184C35.658 15.2677 34.6461 16.2844 33.4026 16.2844C32.1591 16.2844 31.1472 15.2677 31.1472 14.0184Z" stroke="#231815" stroke-linecap="round" stroke-linejoin="round"/>
<path d="M11.6973 66.5249C11.6973 65.2755 12.7093 64.2589 13.9528 64.2589C15.1962 64.2589 16.2082 65.2755 16.2082 66.5249C16.2082 67.7742 15.1962 68.7909 13.9528 68.7909C12.7093 68.7909 11.6973 67.7742 11.6973 66.5249Z" stroke="#231815" stroke-linecap="round" stroke-linejoin="round"/>
<path d="M110.576 66.5249C110.576 63.492 113.029 61.0278 116.047 61.0278C119.066 61.0278 121.519 63.492 121.519 66.5249C121.519 69.5577 119.066 72.0219 116.047 72.0219C113.029 72.0219 110.576 69.5577 110.576 66.5249Z" stroke="#898989" stroke-width="0.5" stroke-linecap="round" stroke-linejoin="round"/>
<path d="M91.1346 14.0184C91.1346 10.9855 93.5873 8.52133 96.606 8.52133C99.6247 8.52133 102.077 10.9855 102.077 14.0184C102.077 17.0513 99.6247 19.5155 96.606 19.5155C93.5873 19.5155 91.1346 17.0513 91.1346 14.0184Z" stroke="#898989" stroke-width="0.5" stroke-linecap="round" stroke-linejoin="round"/>
<path d="M113.8 66.5249C113.8 65.2755 114.812 64.2589 116.056 64.2589C117.299 64.2589 118.311 65.2755 118.311 66.5249C118.311 67.7742 117.299 68.7909 116.056 68.7909C114.812 68.7909 113.8 67.7742 113.8 66.5249Z" stroke="#231815" stroke-linecap="round" stroke-linejoin="round"/>
<path d="M94.4106 14.0184C94.4106 12.8035 95.3882 11.8213 96.5974 11.8213C97.8066 11.8213 98.7842 12.8035 98.7842 14.0184C98.7842 15.2333 97.8066 16.2155 96.5974 16.2155C95.3882 16.2155 94.4106 15.2333 94.4106 14.0184Z" stroke="#231815" stroke-linecap="round" stroke-linejoin="round"/>
<path d="M20.2988 23.7804V58.8565" stroke="#231815" stroke-linecap="round" stroke-linejoin="round"/>
<path d="M20.2988 74.1932V77.519" stroke="#231815" stroke-linecap="round" stroke-linejoin="round"/>
<path d="M23.1888 62.2427V70.8071" stroke="#231815" stroke-linecap="round" stroke-linejoin="round"/>
<path d="M25.7359 14.0184V20.3685" stroke="#231815" stroke-linecap="round" stroke-linejoin="round"/>
<path d="M25.7874 20.8768V28.6658" stroke="#231815" stroke-linecap="round" stroke-linejoin="round"/>
<path d="M28.6602 23.7804V28.8467" stroke="#231815" stroke-linecap="round" stroke-linejoin="round"/>
<path d="M29.9894 73.7021V71.7032" stroke="#231815" stroke-linecap="round" stroke-linejoin="round"/>
<path d="M29.9894 61.3466V59.3477" stroke="#231815" stroke-linecap="round" stroke-linejoin="round"/>
<path d="M35.1263 80.9052V88.2633" stroke="#231815" stroke-linecap="round" stroke-linejoin="round"/>
<path d="M38.1364 28.8467V23.7804" stroke="#231815" stroke-linecap="round" stroke-linejoin="round"/>
<path d="M41.0007 20.8768V28.6658" stroke="#231815" stroke-linecap="round" stroke-linejoin="round"/>
<path d="M41.0522 20.3685V14.0184" stroke="#231815" stroke-linecap="round" stroke-linejoin="round"/>
<path d="M37.5275 90.6758H92.4639" stroke="#231815" stroke-linecap="round" stroke-linejoin="round"/>
<path d="M88.9393 14.0184V20.3685" stroke="#231815" stroke-linecap="round" stroke-linejoin="round"/>
<path d="M88.9907 20.8768V28.6658" stroke="#231815" stroke-linecap="round" stroke-linejoin="round"/>
<path d="M91.8636 23.7804V28.8467" stroke="#231815" stroke-linecap="round" stroke-linejoin="round"/>
<path d="M94.8737 88.2633V80.9052" stroke="#231815" stroke-linecap="round" stroke-linejoin="round"/>
<path d="M100.002 59.3477V61.3466" stroke="#231815" stroke-linecap="round" stroke-linejoin="round"/>
<path d="M100.002 71.7032V73.7021" stroke="#231815" stroke-linecap="round" stroke-linejoin="round"/>
<path d="M101.34 28.8467V23.7804" stroke="#231815" stroke-linecap="round" stroke-linejoin="round"/>
<path d="M23.6691 80.9052H35.1263" stroke="#231815" stroke-linecap="round" stroke-linejoin="round"/>
<path d="M94.8737 80.9052H106.322" stroke="#231815" stroke-linecap="round" stroke-linejoin="round"/>
<path d="M13.9528 74.2191H20.2731" stroke="#231815" stroke-linecap="round" stroke-linejoin="round"/>
<path d="M109.727 74.2191H116.047" stroke="#231815" stroke-linecap="round" stroke-linejoin="round"/>
<path d="M109.212 74.1674H101.468" stroke="#231815" stroke-linecap="round" stroke-linejoin="round"/>
<path d="M20.7791 74.1674H28.5315" stroke="#231815" stroke-linecap="round" stroke-linejoin="round"/>
<path d="M104.204 20.8768V28.6658" stroke="#231815" stroke-linecap="round" stroke-linejoin="round"/>
<path d="M104.256 20.3685V14.0184" stroke="#231815" stroke-linecap="round" stroke-linejoin="round"/>
<path d="M106.811 70.8071V62.2427" stroke="#231815" stroke-linecap="round" stroke-linejoin="round"/>
<path d="M109.701 77.519V74.1932" stroke="#231815" stroke-linecap="round" stroke-linejoin="round"/>
<path d="M109.701 58.8565V23.7804" stroke="#231815" stroke-linecap="round" stroke-linejoin="round"/>
<path d="M23.6691 71.2896H28.7117" stroke="#231815" stroke-linecap="round" stroke-linejoin="round"/>
<path d="M101.288 71.2896H106.331" stroke="#231815" stroke-linecap="round" stroke-linejoin="round"/>
<path d="M106.331 61.7602H101.288" stroke="#231815" stroke-linecap="round" stroke-linejoin="round"/>
<path d="M28.7117 61.7602H23.6691" stroke="#231815" stroke-linecap="round" stroke-linejoin="round"/>
<path d="M109.212 58.8824H101.468" stroke="#231815" stroke-linecap="round" stroke-linejoin="round"/>
<path d="M20.7791 58.8824H28.5315" stroke="#231815" stroke-linecap="round" stroke-linejoin="round"/>
<path d="M116.047 58.8307H109.727" stroke="#231815" stroke-linecap="round" stroke-linejoin="round"/>
<path d="M20.2731 58.8307H13.9528" stroke="#231815" stroke-linecap="round" stroke-linejoin="round"/>
<path d="M26.2504 30.1305H28.24" stroke="#231815" stroke-linecap="round" stroke-linejoin="round"/>
<path d="M38.5481 30.1305H40.5377" stroke="#231815" stroke-linecap="round" stroke-linejoin="round"/>
<path d="M89.4538 30.1305H91.452" stroke="#231815" stroke-linecap="round" stroke-linejoin="round"/>
<path d="M101.751 30.1305H103.741" stroke="#231815" stroke-linecap="round" stroke-linejoin="round"/>
<path d="M100.86 23.2979H92.3353" stroke="#231815" stroke-linecap="round" stroke-linejoin="round"/>
<path d="M37.6562 23.2979H29.1319" stroke="#231815" stroke-linecap="round" stroke-linejoin="round"/>
<path d="M106.322 20.3943H104.23" stroke="#231815" stroke-linecap="round" stroke-linejoin="round"/>
<path d="M88.9736 20.3943H41.0265" stroke="#231815" stroke-linecap="round" stroke-linejoin="round"/>
<path d="M25.7702 20.3943H23.6691" stroke="#231815" stroke-linecap="round" stroke-linejoin="round"/>
<path d="M20.2988 77.519C20.2988 79.3887 21.8082 80.9138 23.6777 80.9138" stroke="#231815" stroke-linecap="round" stroke-linejoin="round"/>
<path d="M35.1263 88.2633C35.1263 89.5988 36.2069 90.6758 37.5276 90.6758" stroke="#231815" stroke-linecap="round" stroke-linejoin="round"/>
<path d="M41.0522 14.0184C41.0522 9.77066 37.6219 6.32422 33.3941 6.32422C29.1662 6.32422 25.7359 9.77066 25.7359 14.0184" stroke="#231815" stroke-linecap="round" stroke-linejoin="round"/>
<path d="M13.9528 58.8307C9.72492 58.8307 6.29462 62.2771 6.29462 66.5249C6.29462 70.7726 9.72492 74.219 13.9528 74.219" stroke="#231815" stroke-linecap="round" stroke-linejoin="round"/>
<path d="M23.6691 20.3943C21.8082 20.3943 20.2903 21.9107 20.2903 23.789" stroke="#231815" stroke-linecap="round" stroke-linejoin="round"/>
<path d="M106.322 80.9051C108.183 80.9051 109.701 79.3887 109.701 77.5104" stroke="#231815" stroke-linecap="round" stroke-linejoin="round"/>
<path d="M92.4639 90.6758C93.7931 90.6758 94.8651 89.5902 94.8651 88.2633" stroke="#231815" stroke-linecap="round" stroke-linejoin="round"/>
<path d="M104.256 14.0184C104.256 9.77066 100.825 6.32422 96.5974 6.32422C92.3696 6.32422 88.9393 9.77066 88.9393 14.0184" stroke="#231815" stroke-linecap="round" stroke-linejoin="round"/>
<path d="M116.047 74.219C120.275 74.219 123.705 70.7726 123.705 66.5249C123.705 62.2771 120.275 58.8307 116.047 58.8307" stroke="#231815" stroke-linecap="round" stroke-linejoin="round"/>
<path d="M109.701 23.7804C109.701 21.9107 108.192 20.3857 106.322 20.3857" stroke="#231815" stroke-linecap="round" stroke-linejoin="round"/>
<path d="M29.1319 23.2979C28.866 23.2979 28.6516 23.5133 28.6516 23.7804" stroke="#231815" stroke-linecap="round" stroke-linejoin="round"/>
<path d="M38.1364 23.7804C38.1364 23.5133 37.922 23.2979 37.6562 23.2979" stroke="#231815" stroke-linecap="round" stroke-linejoin="round"/>
<path d="M92.3353 23.2979C92.0694 23.2979 91.855 23.5133 91.855 23.7804" stroke="#231815" stroke-linecap="round" stroke-linejoin="round"/>
<path d="M101.34 23.7804C101.34 23.5133 101.125 23.2979 100.86 23.2979" stroke="#231815" stroke-linecap="round" stroke-linejoin="round"/>
<path d="M28.5316 74.1674C29.3463 74.1674 29.9894 73.9606 29.9894 73.7021" stroke="#231815" stroke-linecap="round" stroke-linejoin="round"/>
<path d="M29.9894 59.3477C29.9894 59.0892 29.3463 58.8824 28.5316 58.8824" stroke="#231815" stroke-linecap="round" stroke-linejoin="round"/>
<path d="M29.9894 71.7031C29.9894 71.4619 29.4492 71.2896 28.7031 71.2896" stroke="#231815" stroke-linecap="round" stroke-linejoin="round"/>
<path d="M28.7117 61.7602C29.4492 61.7602 29.998 61.5878 29.998 61.3466" stroke="#231815" stroke-linecap="round" stroke-linejoin="round"/>
<path d="M101.468 58.8824C100.654 58.8824 100.011 59.0892 100.011 59.3477" stroke="#231815" stroke-linecap="round" stroke-linejoin="round"/>
<path d="M100.002 73.7021C100.002 73.9606 100.645 74.1674 101.46 74.1674" stroke="#231815" stroke-linecap="round" stroke-linejoin="round"/>
<path d="M100.002 61.3466C100.002 61.5878 100.542 61.7602 101.288 61.7602" stroke="#231815" stroke-linecap="round" stroke-linejoin="round"/>
<path d="M101.288 71.2896C100.551 71.2896 100.002 71.4619 100.002 71.7031" stroke="#231815" stroke-linecap="round" stroke-linejoin="round"/>
<path d="M91.452 30.1305C91.6921 30.1305 91.8636 29.5877 91.8636 28.8381" stroke="#231815" stroke-linecap="round" stroke-linejoin="round"/>
<path d="M101.34 28.8467C101.34 29.5877 101.511 30.1391 101.751 30.1391" stroke="#231815" stroke-linecap="round" stroke-linejoin="round"/>
<path d="M88.9907 28.6657C88.9907 29.4843 89.1965 30.1305 89.4538 30.1305" stroke="#231815" stroke-linecap="round" stroke-linejoin="round"/>
<path d="M103.741 30.1305C103.998 30.1305 104.204 29.4843 104.204 28.6657" stroke="#231815" stroke-linecap="round" stroke-linejoin="round"/>
<path d="M25.7874 28.6657C25.7874 29.4843 25.9932 30.1305 26.2504 30.1305" stroke="#231815" stroke-linecap="round" stroke-linejoin="round"/>
<path d="M40.5377 30.1305C40.7949 30.1305 41.0008 29.4843 41.0008 28.6657" stroke="#231815" stroke-linecap="round" stroke-linejoin="round"/>
<path d="M28.24 30.1305C28.4801 30.1305 28.6516 29.5877 28.6516 28.8381" stroke="#231815" stroke-linecap="round" stroke-linejoin="round"/>
<path d="M106.811 62.2427C106.811 61.9756 106.597 61.7602 106.331 61.7602" stroke="#231815" stroke-linecap="round" stroke-linejoin="round"/>
<path d="M38.1364 28.8467C38.1364 29.5877 38.3079 30.1391 38.548 30.1391" stroke="#231815" stroke-linecap="round" stroke-linejoin="round"/>
<path d="M25.7873 20.8768C25.7873 20.6183 25.7787 20.4029 25.7616 20.3857" stroke="#231815" stroke-linecap="round" stroke-linejoin="round"/>
<path d="M20.2988 58.8565C20.2988 58.8565 20.5218 58.8824 20.7876 58.8824" stroke="#231815" stroke-linecap="round" stroke-linejoin="round"/>
<path d="M109.212 58.8824C109.47 58.8824 109.684 58.8738 109.701 58.8565" stroke="#231815" stroke-linecap="round" stroke-linejoin="round"/>
<path d="M104.23 20.3943C104.23 20.3943 104.204 20.6183 104.204 20.8854" stroke="#231815" stroke-linecap="round" stroke-linejoin="round"/>
<path d="M41.0265 20.3943C41.0265 20.3943 41.0007 20.6183 41.0007 20.8854" stroke="#231815" stroke-linecap="round" stroke-linejoin="round"/>
<path d="M88.9907 20.8768C88.9907 20.6183 88.9821 20.4029 88.965 20.3857" stroke="#231815" stroke-linecap="round" stroke-linejoin="round"/>
<path d="M20.7791 74.1674C20.5218 74.1674 20.3074 74.176 20.2903 74.1932" stroke="#231815" stroke-linecap="round" stroke-linejoin="round"/>
<path d="M109.701 74.1932C109.701 74.1932 109.478 74.1674 109.212 74.1674" stroke="#231815" stroke-linecap="round" stroke-linejoin="round"/>
<path d="M106.331 71.2896C106.597 71.2896 106.811 71.0742 106.811 70.8071" stroke="#231815" stroke-linecap="round" stroke-linejoin="round"/>
<path d="M23.1888 70.8071C23.1888 71.0742 23.4032 71.2896 23.6691 71.2896" stroke="#231815" stroke-linecap="round" stroke-linejoin="round"/>
<path d="M23.6691 61.7602C23.4032 61.7602 23.1888 61.9756 23.1888 62.2427" stroke="#231815" stroke-linecap="round" stroke-linejoin="round"/>
</g>
<defs>
<clipPath id="clip0_337_1870">
<rect width="130" height="97" fill="white"/>
</clipPath>
</defs>
</svg>

<svg xmlns="http://www.w3.org/2000/svg" width="130" height="97" fill="none" viewBox="0 0 130 97"><g clip-path="url(#a)"><path fill="#fff" d="M130 0H0v97h130z"/><path stroke="#898989" stroke-linecap="round" stroke-linejoin="round" stroke-width=".5" d="M27.923 14.018c0-3.033 2.452-5.497 5.471-5.497s5.471 2.464 5.471 5.497-2.452 5.497-5.471 5.497-5.471-2.464-5.471-5.497M8.481 66.525c0-3.033 2.453-5.497 5.472-5.497 3.018 0 5.471 2.464 5.471 5.497s-2.453 5.497-5.471 5.497-5.472-2.464-5.472-5.497"/><path stroke="#231815" stroke-linecap="round" stroke-linejoin="round" d="M31.147 14.018a2.263 2.263 0 0 1 2.256-2.266 2.263 2.263 0 0 1 2.255 2.266 2.263 2.263 0 0 1-2.255 2.266 2.263 2.263 0 0 1-2.256-2.266M11.697 66.525a2.263 2.263 0 0 1 2.256-2.266 2.263 2.263 0 0 1 2.255 2.266 2.264 2.264 0 0 1-2.255 2.266 2.264 2.264 0 0 1-2.256-2.266"/><path stroke="#898989" stroke-linecap="round" stroke-linejoin="round" stroke-width=".5" d="M110.576 66.525c0-3.033 2.453-5.497 5.471-5.497s5.472 2.464 5.472 5.497-2.453 5.497-5.472 5.497c-3.018 0-5.471-2.464-5.471-5.497M91.135 14.018c0-3.033 2.452-5.497 5.471-5.497s5.471 2.464 5.471 5.497-2.452 5.497-5.471 5.497-5.471-2.464-5.471-5.497"/><path stroke="#231815" stroke-linecap="round" stroke-linejoin="round" d="M113.8 66.525a2.264 2.264 0 0 1 2.256-2.266 2.263 2.263 0 0 1 2.255 2.266 2.263 2.263 0 0 1-2.255 2.266 2.264 2.264 0 0 1-2.256-2.266M94.41 14.018a2.19 2.19 0 0 1 2.187-2.197 2.19 2.19 0 0 1 2.187 2.197 2.19 2.19 0 0 1-2.187 2.197 2.19 2.19 0 0 1-2.186-2.197M20.299 23.78v35.076M20.299 74.193v3.326M23.189 62.243v8.564M25.736 14.018v6.35M25.787 20.877v7.789M28.66 23.78v5.067M29.99 73.702v-1.999M29.99 61.347v-2M35.126 80.905v7.358M38.136 28.847V23.78M41 20.877v7.789M41.052 20.369v-6.35M37.528 90.676h54.936M88.94 14.018v6.35M88.99 20.877v7.789M91.864 23.78v5.067M94.874 88.263v-7.358M100.002 59.348v1.999M100.002 71.703v2M101.34 28.847V23.78M23.67 80.905h11.456M94.874 80.905h11.448M13.953 74.22h6.32M109.727 74.22h6.32M109.212 74.167h-7.744M20.78 74.167h7.752M104.204 20.877v7.789M104.256 20.369v-6.35M106.811 70.807v-8.564M109.701 77.519v-3.326M109.701 58.857V23.78M23.67 71.29h5.042M101.288 71.29h5.043M106.331 61.76h-5.043M28.712 61.76h-5.043M109.212 58.882h-7.744M20.78 58.882h7.752M116.047 58.83h-6.32M20.273 58.83h-6.32M26.25 30.13h1.99M38.548 30.13h1.99M89.454 30.13h1.998M101.751 30.13h1.99M100.86 23.298h-8.525M37.656 23.298h-8.524M106.322 20.394h-2.092M88.974 20.394H41.026M25.77 20.394h-2.1M20.299 77.519c0 1.87 1.51 3.395 3.379 3.395M35.126 88.263a2.41 2.41 0 0 0 2.402 2.413M41.052 14.018c0-4.247-3.43-7.694-7.658-7.694s-7.658 3.447-7.658 7.694M13.953 58.83c-4.228 0-7.658 3.447-7.658 7.695s3.43 7.694 7.658 7.694M23.67 20.394a3.39 3.39 0 0 0-3.38 3.395M106.322 80.905a3.39 3.39 0 0 0 3.379-3.395M92.464 90.676a2.41 2.41 0 0 0 2.401-2.413"/><path stroke="#231815" stroke-linecap="round" stroke-linejoin="round" d="M104.256 14.018c0-4.247-3.431-7.694-7.659-7.694s-7.658 3.447-7.658 7.694M116.047 74.219c4.228 0 7.658-3.446 7.658-7.694s-3.43-7.694-7.658-7.694M109.701 23.78a3.39 3.39 0 0 0-3.379-3.394M29.132 23.298a.48.48 0 0 0-.48.482M38.136 23.78a.48.48 0 0 0-.48-.482M92.335 23.298a.48.48 0 0 0-.48.482M101.34 23.78a.48.48 0 0 0-.48-.482M28.532 74.167c.814 0 1.457-.206 1.457-.465M29.99 59.348c0-.259-.644-.466-1.458-.466M29.99 71.703c0-.241-.54-.413-1.287-.413M28.712 61.76c.737 0 1.286-.172 1.286-.413M101.468 58.882c-.814 0-1.457.207-1.457.466M100.002 73.702c0 .259.643.465 1.458.465M100.002 61.347c0 .24.54.413 1.286.413M101.288 71.29c-.737 0-1.286.172-1.286.413M91.452 30.13c.24 0 .412-.542.412-1.292M101.34 28.847c0 .74.171 1.292.411 1.292M88.99 28.666c0 .818.207 1.465.464 1.465M103.741 30.13c.257 0 .463-.646.463-1.464M25.787 28.666c0 .818.206 1.465.463 1.465M40.538 30.13c.257 0 .463-.646.463-1.464M28.24 30.13c.24 0 .412-.542.412-1.292M106.811 62.243a.48.48 0 0 0-.48-.483M38.136 28.847c0 .74.172 1.292.412 1.292M25.787 20.877c0-.259-.008-.474-.025-.491M20.299 58.857s.223.025.489.025M109.212 58.882c.258 0 .472-.008.489-.026M104.23 20.394s-.026.224-.026.491M41.027 20.394s-.026.224-.026.491M88.99 20.877c0-.259-.008-.474-.025-.491M20.78 74.167c-.258 0-.473.009-.49.026M109.701 74.193s-.223-.026-.489-.026M106.331 71.29a.48.48 0 0 0 .48-.483M23.189 70.807a.48.48 0 0 0 .48.483M23.67 61.76a.48.48 0 0 0-.481.483"/></g><defs><clipPath id="a"><path fill="#fff" d="M0 0h130v97H0z"/></clipPath></defs></svg>
